X:198
T:Breeches Loose
M:6/8
L:1/8
B:Thompson's Compleat Collection of 200 Favourite Country Dances, vol. 1 (London, 1757)
Z:Transcribed and edited by Flynn Titford-Mock, 2007
Z:abc's:AK/Fiddler's Companion
K:Gmin
A|BdB cAc|BGG G2A|BdB cAc|AFF F2A|BdB cAc|Bdg f2e|dcB (A/B/c)A|BGG G2:|
|:A|Bd(f f)dB|fdB fdB|ce(g g)ec|gec gec|Bd(f f)dB|bag fdB|(c/d/e)c (A/B/c)A|BGG G2:|

